X: 20166
T: Job Of Journeywork, The
R: hornpipe
M: 4/4
K: Dmajor
|:(3gfe|dcAG FGAB|=cA (3BAG A2 (3gfe|d2 (3gfe dcAF|(3GAB AF DEFG|
A<dFA GFEF|D2DE (3FED (3GFE|(3AGF dA (3def (3edc|d2dc d2:|
|:ag|fgef gfef|dedc A2de|fede gfec|A<ddc defg|
a2 (3agf gfef|dcde fAfe|dcAG FGAB|=cA BG A2 (3gfe|d2 (3gfe dcAF|
(3GAB AF DEFG|~A2 (3AGF GFEF|D2DE FEGF|A2dA (3def ec|d2dc d2:|

